img/levels/icon4.svg

<svg width="100" height="100" viewBox="0 0 100 100" fill="none" xmlns="http://www.w3.org/2000/svg">
<g clip-path="url(#clip0_206_34799)">
<path opacity="0.8" d="M100.421 50.0687C100.421 56.563 99.1579 63.0573 96.7368 69.1326C94.2105 75.1031 90.5263 80.6547 86 85.2635C81.3684 89.8724 75.8947 93.6432 69.7895 96.1571C63.7895 98.671 57.1579 100.033 50.6316 100.137C44 100.137 37.4737 98.9853 31.3684 96.4714C25.2631 93.9574 19.5789 90.2913 14.9473 85.6825C10.2105 81.0737 6.5263 75.4173 3.89472 69.3421C1.3684 63.2668 0 56.6678 0 50.0687C0 43.4697 1.3684 36.8707 3.89472 30.7954C6.42103 24.7201 10.2105 19.1686 14.9473 14.455C19.6842 9.84616 25.2631 6.18003 31.3684 3.66612C37.4737 1.15221 44.1052 0 50.6316 0C57.2631 0.104746 63.7895 1.36171 69.7895 3.98036C75.7895 6.49428 81.3684 10.2651 86 14.874C90.6316 19.4828 94.3158 25.0344 96.7368 31.0049C99.1579 37.0802 100.421 43.5745 100.421 50.0687ZM100.421 50.0687C100.421 43.5745 99.0526 37.0802 96.5263 31.1097C94 25.1391 90.3158 19.6923 85.6842 15.0835C81.0526 10.4746 75.4737 6.91326 69.4737 4.5041C63.4737 2.09493 56.9474 0.83798 50.5263 0.942726C44 1.04747 37.5789 2.30443 31.6842 4.81834C25.6842 7.33225 20.3158 10.9984 15.7895 15.6072C11.2632 20.1113 7.57894 25.5581 5.15789 31.5286C2.73684 37.3944 1.47368 43.8887 1.47368 50.2782C1.47368 56.6678 2.73684 63.0573 5.15789 69.0278C7.57894 74.9984 11.2632 80.3404 15.7895 84.9493C20.3158 89.4533 25.7894 93.2242 31.6842 95.7381C37.5789 98.2521 44.1053 99.6137 50.5263 99.6137C57.0526 99.6137 63.4737 98.4615 69.4737 96.0524C75.4737 93.6432 81.0526 89.9771 85.6842 85.473C90.3158 80.8642 94 75.4174 96.5263 69.4468C99.0526 63.0573 100.316 56.563 100.421 50.0687Z" fill="url(#paint0_linear_206_34799)"/>
<path d="M50.5455 48V42H46.9091V48H41.4545V52H46.9091V58H50.5455V52H56V48H50.5455ZM30.5455 54C34.5636 54 37.8182 50.42 37.8182 46C37.8182 41.58 34.5636 38 30.5455 38C26.5273 38 23.2727 41.58 23.2727 46C23.2727 50.42 26.5273 54 30.5455 54ZM30.5455 42C32.5455 42 34.1818 43.8 34.1818 46C34.1818 48.2 32.5455 50 30.5455 50C28.5455 50 26.9091 48.2 26.9091 46C26.9091 43.8 28.5455 42 30.5455 42ZM42.1636 59.12C39.1091 57.4 35.1455 56 30.5455 56C25.9455 56 21.9818 57.4 18.9273 59.12C17.1091 60.14 16 62.2 16 64.44V70H45.0909V64.44C45.0909 62.2 43.9818 60.14 42.1636 59.12ZM41.4545 66H19.6364V64.44C19.6364 63.68 20 63 20.5818 62.68C22.7455 61.46 26.2364 60 30.5455 60C34.8545 60 38.3455 61.46 40.5091 62.68C41.0909 63 41.4545 63.68 41.4545 64.44V66Z" fill="url(#paint1_linear_206_34799)"/>
<path d="M61.8984 43H59.4844V36.3906L59.5078 35.3047L59.5469 34.1172C59.1458 34.5182 58.8672 34.7812 58.7109 34.9062L57.3984 35.9609L56.2344 34.5078L59.9141 31.5781H61.8984V43ZM72.9922 37.2891C72.9922 39.2839 72.6641 40.7604 72.0078 41.7188C71.3568 42.6771 70.3516 43.1562 68.9922 43.1562C67.6745 43.1562 66.6797 42.6615 66.0078 41.6719C65.3411 40.6823 65.0078 39.2214 65.0078 37.2891C65.0078 35.2734 65.3333 33.7891 65.9844 32.8359C66.6354 31.8776 67.638 31.3984 68.9922 31.3984C70.3099 31.3984 71.3047 31.8984 71.9766 32.8984C72.6536 33.8984 72.9922 35.362 72.9922 37.2891ZM67.4062 37.2891C67.4062 38.6901 67.526 39.6953 67.7656 40.3047C68.0104 40.9089 68.4193 41.2109 68.9922 41.2109C69.5547 41.2109 69.9609 40.9036 70.2109 40.2891C70.4609 39.6745 70.5859 38.6745 70.5859 37.2891C70.5859 35.888 70.4583 34.8828 70.2031 34.2734C69.9531 33.6589 69.5495 33.3516 68.9922 33.3516C68.4245 33.3516 68.0182 33.6589 67.7734 34.2734C67.5286 34.8828 67.4062 35.888 67.4062 37.2891ZM82.1328 37.2891C82.1328 39.2839 81.8047 40.7604 81.1484 41.7188C80.4974 42.6771 79.4922 43.1562 78.1328 43.1562C76.8151 43.1562 75.8203 42.6615 75.1484 41.6719C74.4818 40.6823 74.1484 39.2214 74.1484 37.2891C74.1484 35.2734 74.474 33.7891 75.125 32.8359C75.776 31.8776 76.7786 31.3984 78.1328 31.3984C79.4505 31.3984 80.4453 31.8984 81.1172 32.8984C81.7943 33.8984 82.1328 35.362 82.1328 37.2891ZM76.5469 37.2891C76.5469 38.6901 76.6667 39.6953 76.9062 40.3047C77.151 40.9089 77.5599 41.2109 78.1328 41.2109C78.6953 41.2109 79.1016 40.9036 79.3516 40.2891C79.6016 39.6745 79.7266 38.6745 79.7266 37.2891C79.7266 35.888 79.599 34.8828 79.3438 34.2734C79.0938 33.6589 78.6901 33.3516 78.1328 33.3516C77.5651 33.3516 77.1589 33.6589 76.9141 34.2734C76.6693 34.8828 76.5469 35.888 76.5469 37.2891Z" fill="url(#paint2_linear_206_34799)"/>
</g>
<defs>
<linearGradient id="paint0_linear_206_34799" x1="50.2105" y1="0" x2="50.2105" y2="100.137" gradientUnits="userSpaceOnUse">
<stop stop-color="#842637"/>
<stop offset="1" stop-color="#F53E5D"/>
</linearGradient>
<linearGradient id="paint1_linear_206_34799" x1="36" y1="38" x2="36" y2="70" gradientUnits="userSpaceOnUse">
<stop stop-color="#842637"/>
<stop offset="1" stop-color="#F53E5D"/>
</linearGradient>
<linearGradient id="paint2_linear_206_34799" x1="69" y1="30" x2="69" y2="43" gradientUnits="userSpaceOnUse">
<stop stop-color="#842637"/>
<stop offset="1" stop-color="#F53E5D"/>
</linearGradient>
<clipPath id="clip0_206_34799">
<rect width="100" height="100" fill="white"/>
</clipPath>
</defs>
</svg>

<svg width="100" height="100" fill="none" xmlns="http://www.w3.org/2000/svg"><g clip-path="url(#clip0_206_34799)"><path opacity=".8" d="M100.421 50.069c0 6.494-1.263 12.988-3.684 19.064-2.526 5.97-6.21 11.522-10.737 16.13-4.632 4.61-10.105 8.38-16.21 10.894-6 2.514-12.632 3.876-19.158 3.98-6.632 0-13.158-1.152-19.264-3.666-6.105-2.514-11.79-6.18-16.42-10.788-4.738-4.61-8.422-10.266-11.053-16.34C1.368 63.266 0 56.667 0 50.068c0-6.6 1.368-13.198 3.895-19.274C6.42 24.72 10.21 19.17 14.947 14.455A51.897 51.897 0 0131.368 3.666C37.474 1.152 44.105 0 50.632 0c6.631.105 13.157 1.362 19.158 3.98 6 2.514 11.578 6.285 16.21 10.894a48.723 48.723 0 0110.737 16.13c2.42 6.076 3.684 12.57 3.684 19.065zm0 0c0-6.495-1.368-12.989-3.895-18.96a50.253 50.253 0 00-10.842-16.026c-4.631-4.608-10.21-8.17-16.21-10.579-6-2.41-12.527-3.666-18.948-3.561C44 1.047 37.58 2.304 31.684 4.818a48.514 48.514 0 00-15.895 10.79c-4.526 4.503-8.21 9.95-10.631 15.92-2.421 5.866-3.684 12.36-3.684 18.75 0 6.39 1.263 12.78 3.684 18.75 2.42 5.97 6.105 11.312 10.631 15.921 4.527 4.504 10 8.275 15.895 10.79 5.895 2.513 12.421 3.875 18.842 3.875 6.527 0 12.948-1.153 18.948-3.562s11.579-6.075 16.21-10.579a50.253 50.253 0 0010.842-16.026c2.527-6.39 3.79-12.884 3.895-19.378z" fill="url(#paint0_linear_206_34799)"/><path d="M50.545 48v-6H46.91v6h-5.454v4h5.454v6h3.636v-6H56v-4h-5.455zm-20 6c4.019 0 7.273-3.58 7.273-8s-3.254-8-7.272-8c-4.019 0-7.273 3.58-7.273 8s3.254 8 7.273 8zm0-12c2 0 3.637 1.8 3.637 4s-1.637 4-3.637 4-3.636-1.8-3.636-4 1.637-4 3.637-4zm11.619 17.12C39.109 57.4 35.145 56 30.545 56s-8.563 1.4-11.618 3.12C17.11 60.14 16 62.2 16 64.44V70h29.09v-5.56c0-2.24-1.108-4.3-2.926-5.32zm-.71 6.88H19.637v-1.56c0-.76.364-1.44.946-1.76 2.163-1.22 5.654-2.68 9.963-2.68 4.31 0 7.8 1.46 9.964 2.68.582.32.946 1 .946 1.76V66z" fill="url(#paint1_linear_206_34799)"/><path d="M61.898 43h-2.414v-6.61l.024-1.085.039-1.188c-.401.401-.68.664-.836.79l-1.313 1.054-1.164-1.453 3.68-2.93h1.984V43zm11.094-5.71c0 1.994-.328 3.47-.984 4.429-.651.958-1.656 1.437-3.016 1.437-1.318 0-2.312-.495-2.984-1.484-.667-.99-1-2.45-1-4.383 0-2.016.325-3.5.976-4.453.651-.958 1.654-1.438 3.008-1.438 1.318 0 2.313.5 2.985 1.5.677 1 1.015 2.464 1.015 4.391zm-5.586 0c0 1.4.12 2.405.36 3.015.244.604.653.906 1.226.906.563 0 .969-.307 1.219-.922.25-.614.375-1.614.375-3 0-1.401-.128-2.406-.383-3.016-.25-.614-.654-.921-1.21-.921-.569 0-.975.307-1.22.921-.244.61-.367 1.615-.367 3.016zm14.727 0c0 1.994-.328 3.47-.985 4.429-.65.958-1.656 1.437-3.015 1.437-1.318 0-2.313-.495-2.985-1.484-.666-.99-1-2.45-1-4.383 0-2.016.326-3.5.977-4.453.651-.958 1.654-1.438 3.008-1.438 1.318 0 2.312.5 2.984 1.5.677 1 1.016 2.464 1.016 4.391zm-5.586 0c0 1.4.12 2.405.36 3.015.244.604.653.906 1.226.906.562 0 .969-.307 1.219-.922.25-.614.375-1.614.375-3 0-1.401-.128-2.406-.383-3.016-.25-.614-.654-.921-1.211-.921-.568 0-.974.307-1.219.921-.245.61-.367 1.615-.367 3.016z" fill="url(#paint2_linear_206_34799)"/></g><defs><linearGradient id="paint0_linear_206_34799" x1="50.211" y1="0" x2="50.211" y2="100.137" gradientUnits="userSpaceOnUse"><stop stop-color="#842637"/><stop offset="1" stop-color="#F53E5D"/></linearGradient><linearGradient id="paint1_linear_206_34799" x1="36" y1="38" x2="36" y2="70" gradientUnits="userSpaceOnUse"><stop stop-color="#842637"/><stop offset="1" stop-color="#F53E5D"/></linearGradient><linearGradient id="paint2_linear_206_34799" x1="69" y1="30" x2="69" y2="43" gradientUnits="userSpaceOnUse"><stop stop-color="#842637"/><stop offset="1" stop-color="#F53E5D"/></linearGradient><clipPath id="clip0_206_34799"><path fill="#fff" d="M0 0h100v100H0z"/></clipPath></defs></svg>
